X:18
T:The Nymph
S:John Moore's Book 1
Z:Transcribed by Paul Barber-Riley  March 2016
M:2/4
L:1/8
K:D
%%VWML: Moore1-4493-p12-0
F:http://www.vwml.org/record/Moore1/4493/p12
dd/c/ dA | dfaf | gedc | d/c/d/e/ dA |
dd/c/ dA | dfaf | gedc | d4:|
gf f2 | ed d2 | cdef | g/a/g/f/ e2 |
gf f2 | ed d2 | cg f/e/d/c/ | {c}d4:|
f3a | d3f | {^d}e2 ge | {d}c2 BA |
d2 ef | g3f  | fedc | d4:|
